X:571
T:Black Joke with Variations
O:england
R:Jig
M:6/8
L:1/8
N:Dance Music, 1820-1850
A:Yorkshire
B:"The Fiddler of Helperby", Dragonfly Music, ISBN 1-872277-18-7, 1994.
K:A
EAA AGA|BcB BAB|cdc ecA|Fdc BAG|ABc FGA|EFG A3:|\
|:cde efe|fga fed|cde efe|fga edc|\
dfd cec|BcB B2 A/G/|Ace ecA|Fdc BAG|ABc FGA|EFG A3:|\
|:A,CE Ace|B,DF Bdf|A,CE Ace|aec edB|ABc FGA|EFG A3:|\
|:cde e/d/c/B/A|afd ecA|cde e/d/c/B/A|agf edc|\
dfb cea|BcB B2 (3efg|agf ecA|Fdc BAG|ABc FGA|EFG A3:|\
|:ABA AA,A|BcB BB,B|cdc cCc|BcB BAG|A/B/c/d/e FAd|EFG A3:|\
|:e/d/c/d/e/f/ ecA|afd ecA|e/d/c/d/e/f/ ecA|agf edc|\
dfb cea|BcB B2 (3efg|agf f/e/d/c/B/A/|Fdc BAG|\
A/B/c/d/e FAd|EFG A3:|\
|:A,2A A/G/F/E/D/C/|B,2 B B/A/G/F/E/D/|\
C2c c/B/A/G/F/E/2|B,2 B BAG|\
A/B/c/d/e F/G/A/B/c/d/|EFG A3:|\
|:c/B/A/B/c/d/ e/d/c/d/e/c/|\
a/g/f/g/a/f/ e/d/c/d/e/2c/|\
c/B/A/B/c/d/ e/d/c/d/e/c/|\
a/g/f/g/a/f/ e/d/c/d/e/c/|\
d/f/b/e/d/c/ c/e/a/e/d/c/|\
BcB B2 (3e/f/g/|agf f/e/d/c/B/A/|\
Fdc BAG|Ace FAd|EFG A3:|\
|:eab z3|ebc' z3|ec'd' z3|ed'e' z3|\
eag agf|efg a3:|\
e/d/c/B/A z3|fga ecA|e/d/c/B/A z3|fga edc|\
dfb cea|BcB B2 (3e/f/g/|agf f/e/d/c/B/A/|Fdc BAG|\
Ace FAd|EFG A3:|\
|:eaa aga|bc'b bab|c'd'c' e'c'a|fd'c' bag|\
abc' fga|efg a3:|\
|:ece z3|fdf z3|ece z3|fdf z3|\
aca z3|gBg z3 agf f/e/d/c/B/A/|\
Fdc BAG|A/B/c/d/e FAd|EFG A3:|\
|:aAa z3|bAb z3|c'Ac' z3|bAb z3|ac'a agf|efg a3:|\
|:ec/c/c/c/ z3|fd/d/d/d/ z3|\
ec/c/c/c/ z3|fd/d/d/d/ z3|\
agf edc|BcB B2 (3e/f/g/|afd ecA|Fdc BAG|\
A/B/c/d/e FAd|EFG A3:|
